X:8
T:Polka GD&C (tinwhistle in D) solo
T:pk05146 (Hanny Christen)
%%MIDI program 72   % 111 /74 / 79=whistle
M:2/4
L:1/8
K:G transpose=12
g>d e>B | d>A "_c"c/2B/2c | c/2e/2e d>"_c"c | B/2g/2g d>d | g>d e>B | d>A "_c"c/2B/2c | c/2e/2e A/2f/2f | GB Gz :| [K:Dmaj]
|: TBA ^G/2A/2B/2c/2 | Ted c/2d/2e/2f/2 | Tgc Bc | ed cd | TBA ^G/2A/2B/2c/2 | Ted c/2d/2e/2f/2 | g>c f>e | 
dd d "_>Teil A"z :| [K:Cmaj] e3"_c"c | Gc ea | g3d | "_f""_^"f3d | "_c"TcB BA | Bf Ad | "_c"cB AG | 
"_c"cg Gc | e3"_c"c | G"_c"c ea | g3d | "_f""_^"f3d | TcB !>!g2 | "_f""_^"fe!>!c2 | Ted "_f""_^"f/2e/2d | "_c"ce cz |]
AA/2^G/2 A"_c"c | Ge/2^d/2 e"_c"c | Bf Af | Ge G"_c"c | AA/2^G/2 A"_c"c | Ge/2d/2 e"_c"c | Bf A>B | "_c"cc cz |]
W:Parts: ABACD
W:
W:for tin whistle TABs go to: 
W:http://www.mandolintab.net/abcconverter.php
W:" Tablatur: Whistle - key: D "
W:a fingering chart (advanced) you can download from:
W:http://fullbodyburn.com/wp-content/uploads/2011/07/01-D1.jpg
% June 16, 2016

